build/svg/cmd/32/insertmath.svg

<?xml version="1.0" encoding="UTF-8" standalone="no"?>
<svg
   xmlns:dc="http://purl.org/dc/elements/1.1/"
   xmlns:cc="http://creativecommons.org/ns#"
   xmlns:rdf="http://www.w3.org/1999/02/22-rdf-syntax-ns#"
   xmlns:svg="http://www.w3.org/2000/svg"
   xmlns="http://www.w3.org/2000/svg"
   xmlns:sodipodi="http://sodipodi.sourceforge.net/DTD/sodipodi-0.dtd"
   xmlns:inkscape="http://www.inkscape.org/namespaces/inkscape"
   viewBox="0 0 32 32"
   version="1.1"
   id="svg6"
   sodipodi:docname="insertmath.svg"
   inkscape:version="0.92.4 (5da689c313, 2019-01-14)"
   inkscape:export-filename="/home/jupiter007/Libreoffice yaru theme fullcolor/build/cmd/32/insertmath.png"
   inkscape:export-xdpi="95"
   inkscape:export-ydpi="95">
  <metadata
     id="metadata12">
    <rdf:RDF>
      <cc:Work
         rdf:about="">
        <dc:format>image/svg+xml</dc:format>
        <dc:type
           rdf:resource="http://purl.org/dc/dcmitype/StillImage" />
      </cc:Work>
    </rdf:RDF>
  </metadata>
  <defs
     id="defs10" />
  <sodipodi:namedview
     pagecolor="#ffffff"
     bordercolor="#666666"
     borderopacity="1"
     objecttolerance="10"
     gridtolerance="10"
     guidetolerance="10"
     inkscape:pageopacity="0"
     inkscape:pageshadow="2"
     inkscape:window-width="1920"
     inkscape:window-height="1011"
     id="namedview8"
     showgrid="true"
     inkscape:zoom="10.429825"
     inkscape:cx="-14.36199"
     inkscape:cy="17.602637"
     inkscape:window-x="1920"
     inkscape:window-y="32"
     inkscape:window-maximized="1"
     inkscape:current-layer="svg6">
    <inkscape:grid
       type="xygrid"
       id="grid822" />
  </sodipodi:namedview>
  <path
     sodipodi:nodetypes="cccscsccccccccscscccccc"
     inkscape:connector-curvature="0"
     id="path4237-1"
     d="M 7,3.999859 C 5.7418,4.014359 4.821109,3.969259 4.068359,4.384625 3.691989,4.592285 3.395128,4.944012 3.230468,5.382672 3.065798,5.821342 3.005859,6.342259 3.005859,6.999859 v 1.488282 16.512582 c 0,0.65761 0.0599,1.178577 0.224609,1.617188 0.16468,0.438611 0.461531,0.788524 0.837891,0.996093 C 4.821079,28.029134 5.7419,27.985653 7,28.000723 h 0.002 18.005859 0.0039 c 1.25819,-0.0145 2.178891,0.0306 2.931641,-0.384766 0.37637,-0.20766 0.673221,-0.559386 0.837891,-0.998046 0.164539,-0.438671 0.224618,-0.959578 0.224618,-1.617188 V 8.466657 6.999859 c 0,-0.6576 -0.0599,-1.178577 -0.224609,-1.617187 -0.16468,-0.4386 -0.461531,-0.788534 -0.837891,-0.996094 -0.75277,-0.41513 -1.673601,-0.371639 -2.931691,-0.386719 h -0.002 -18.005859 z"
     style="font-style:normal;font-variant:normal;font-weight:normal;font-stretch:normal;font-size:15px;line-height:125%;font-family:Ubuntu;-inkscape-font-specification:Ubuntu;text-align:center;letter-spacing:0px;word-spacing:0px;writing-mode:lr-tb;text-anchor:middle;display:inline;opacity:0.6;fill:#000000;fill-opacity:1;stroke:none;stroke-width:0.99980211" />
  <path
     inkscape:connector-curvature="0"
     id="path1993"
     d="m 11.989228,5.027044 c -1.556581,0.0108 -5.10999,-0.01175 -6.659941,0.03877 -0.461229,0.04267 -1.016188,0.20642 -1.15534,0.709967 -0.218994,0.635346 -0.108414,1.333787 -0.145796,1.981924 -0.0078,2.297085 -0.02297,15.596709 0.02152,17.886061 0.0391,0.461929 0.202551,1.012666 0.698756,1.163666 0.632456,0.225082 1.284144,0.12274 1.935974,0.154298 1.424235,0.0068 4.850563,0.01102 6.27642,0.01131 1.704531,3.5e-4 11.408388,-0.005 13.10719,-0.01851 0.511911,-0.01201 1.183699,0.01993 1.584745,-0.405191 0.421097,-0.539783 0.287073,-1.268021 0.322745,-1.903787 0.01187,-2.444323 0.02769,-15.911375 -0.0219,-18.357075 C 27.904321,5.886437 27.783609,5.425525 27.378462,5.244002 26.710293,4.949904 25.952257,5.075983 25.252541,5.038429 23.498134,5.026629 13.743667,5.025949 11.989228,5.027039 Z"
     style="opacity:1;vector-effect:none;fill:#a6d74f;fill-opacity:1;stroke:none;stroke-width:1;stroke-linecap:round;stroke-linejoin:bevel;stroke-miterlimit:4;stroke-dasharray:none;stroke-dashoffset:0;stroke-opacity:1"
     sodipodi:nodetypes="cccccccscccccccc" />
  <circle
     style="opacity:1;vector-effect:none;fill:#46a926;fill-opacity:1;stroke:none;stroke-width:4.49999952;stroke-linecap:butt;stroke-linejoin:round;stroke-miterlimit:4;stroke-dasharray:none;stroke-dashoffset:0;stroke-opacity:1"
     id="path2644"
     cy="26.5"
     cx="26.5"
     r="4.5" />
  <path
     inkscape:connector-curvature="0"
     id="path1063"
     overflow="visible"
     font-weight="400"
     style="color:#000000;font-weight:400;line-height:normal;font-family:sans-serif;text-indent:0;text-align:start;text-decoration:none;text-decoration-line:none;text-decoration-style:solid;text-decoration-color:#000000;text-transform:none;white-space:normal;overflow:visible;isolation:auto;mix-blend-mode:normal;fill:#ffffff;fill-opacity:1;marker:none"
     d="m 26,24 v 2 h -2.000001 v 1 H 26 v 2 h 1 v -2 h 2 v -1 h -2 v -2 z" />
  <path
     style="fill:#ffffff;fill-opacity:1"
     d="m 16,8.9999998 v 0.00586 L 9.5,21 7.294922,17 H 5 v 1 H 6.40039 L 9.5,23.541016 17,10 H 27 V 9 Z"
     id="path844"
     inkscape:connector-curvature="0"
     sodipodi:nodetypes="cccccccccccc" />
  <path
     style="fill:#ffffff;fill-opacity:1"
     d="M 21.5 12 A 4.5 4.5 0 0 0 17 16.5 A 4.5 4.5 0 0 0 21.5 21 A 4.5 4.5 0 0 0 25 19.326172 L 25 21 L 26 21 L 26 16.5 L 26 12 L 25 12 L 25 13.677734 A 4.5 4.5 0 0 0 21.5 12 z M 21.5 13 A 3.5 3.5 0 0 1 25 16.5 A 3.5 3.5 0 0 1 21.5 20 A 3.5 3.5 0 0 1 18 16.5 A 3.5 3.5 0 0 1 21.5 13 z "
     id="path842" />
</svg>

<svg xmlns="http://www.w3.org/2000/svg" viewBox="0 0 32 32"><path d="M7 4c-1.258.014-2.179-.03-2.932.385a1.88 1.88 0 00-.838.998c-.164.438-.224.96-.224 1.617V25c0 .657.06 1.178.224 1.617.165.439.462.788.838.996.753.415 1.674.372 2.932.387h18.012c1.258-.015 2.179.03 2.931-.385a1.88 1.88 0 00.838-.998c.165-.439.225-.96.225-1.617V7c0-.658-.06-1.179-.225-1.617a1.875 1.875 0 00-.838-.996c-.752-.416-1.673-.372-2.931-.387H7.004z" style="line-height:125%;-inkscape-font-specification:Ubuntu;text-align:center" font-weight="400" font-size="15" font-family="Ubuntu" letter-spacing="0" word-spacing="0" text-anchor="middle" opacity=".6"/><path d="M11.99 5.027c-1.557.01-5.11-.012-6.66.039-.462.042-1.017.206-1.156.71-.219.635-.108 1.334-.146 1.982-.008 2.297-.023 15.596.022 17.886.039.462.202 1.012.698 1.163.633.226 1.285.123 1.936.155 1.425.007 4.851.01 6.277.011 1.704 0 11.408-.005 13.107-.018.512-.012 1.184.02 1.585-.406.42-.54.287-1.268.323-1.903.011-2.445.027-15.912-.022-18.358-.05-.402-.17-.862-.576-1.044-.668-.294-1.426-.168-2.125-.206-1.755-.011-11.51-.012-13.264-.011z" fill="#a6d74f"/><circle cy="26.5" cx="26.5" r="4.5" fill="#46a926"/><path overflow="visible" font-weight="400" style="line-height:normal;text-indent:0;text-align:start;text-decoration-line:none;text-decoration-style:solid;text-decoration-color:#000;text-transform:none;white-space:normal;isolation:auto;mix-blend-mode:normal;marker:none" d="M26 24v2h-2v1h2v2h1v-2h2v-1h-2v-2z" color="#000" font-family="sans-serif" fill="#fff"/><path d="M16 9v.006L9.5 21l-2.205-4H5v1h1.4l3.1 5.541L17 10h10V9z" fill="#fff"/><path d="M21.5 12a4.5 4.5 0 00-4.5 4.5 4.5 4.5 0 004.5 4.5 4.5 4.5 0 003.5-1.674V21h1v-9h-1v1.678A4.5 4.5 0 0021.5 12zm0 1a3.5 3.5 0 013.5 3.5 3.5 3.5 0 01-3.5 3.5 3.5 3.5 0 01-3.5-3.5 3.5 3.5 0 013.5-3.5z" fill="#fff"/></svg>
